packages/icons/src/components/Icon/assets/small-outline/folder.svg

<svg width="16" height="16" viewBox="0 0 16 16" fill="none" xmlns="http://www.w3.org/2000/svg">
<path fill-rule="evenodd" clip-rule="evenodd" d="M3 3.25C2.58579 3.25 2.25 3.58579 2.25 4V5.87803C2.48458 5.79512 2.73702 5.75 3 5.75H13C13.2591 5.75 13.5079 5.79379 13.7395 5.87436C13.6797 5.51996 13.3714 5.25 13 5.25H9.41421C8.95008 5.25 8.50497 5.06563 8.17678 4.73744L6.76256 3.32322C6.71568 3.27634 6.65209 3.25 6.58579 3.25H3ZM13.75 8C13.75 7.58579 13.4142 7.25 13 7.25H3C2.58579 7.25 2.25 7.58579 2.25 8V12C2.25 12.4142 2.58579 12.75 3 12.75H13C13.4142 12.75 13.75 12.4142 13.75 12V8ZM15.25 12C15.25 13.2426 14.2426 14.25 13 14.25H3C1.75736 14.25 0.75 13.2426 0.75 12V4C0.75 2.75736 1.75736 1.75 3 1.75H6.58579C7.04991 1.75 7.49503 1.93437 7.82322 2.26256L9.23744 3.67678C9.28432 3.72366 9.34791 3.75 9.41421 3.75H13C14.2426 3.75 15.25 4.75736 15.25 6V12Z" fill="black"/>
</svg>

<svg xmlns="http://www.w3.org/2000/svg" width="16" height="16" fill="none" viewBox="0 0 16 16">
    <path d="M3 3.25a.75.75 0 0 0-.75.75v1.878q.354-.126.75-.128h10q.391.002.74.124A.75.75 0 0 0 13 5.25H9.414a1.75 1.75 0 0 1-1.237-.513L6.763 3.323a.25.25 0 0 0-.177-.073zM13.75 8a.75.75 0 0 0-.75-.75H3a.75.75 0 0 0-.75.75v4c0 .414.336.75.75.75h10a.75.75 0 0 0 .75-.75zm1.5 4A2.25 2.25 0 0 1 13 14.25H3A2.25 2.25 0 0 1 .75 12V4A2.25 2.25 0 0 1 3 1.75h3.586c.464 0 .909.184 1.237.513l1.414 1.414a.25.25 0 0 0 .177.073H13A2.25 2.25 0 0 1 15.25 6z" clip-rule="evenodd"/>
</svg>
